X:5701
T:Gan ainm
R:Reel
S:Unknown Accordion
C: Tommy Maguire 
H:
N:See Liz Carroll/Tommy Maguire for a different (correct) version of this reel
D:Ancient Fleadh Recording
Z:Adrian Scahill
M:2/2
L:1/8
K:D
FBAF EFDe|fded BdAG|FAA2 eAfA|gfed (3Bcd AG|\
FAdA FADG|G2BG EFDE|CDB,C A,2ag|1 fdec dcBA:|2 fedc dcBc||\
d2fd adfd|egfd edBd|AB^GB A3e|cAec AecA|\
d2fd afdf|(3Bcd ef g3b|afge fded|cAGE D4:||
